X:1
T:Hedesundapolska
R:Polska
Z:Göran Hed 2009
O:Gävle, Gästrikland
S:efter Gustaf Jernberg
B:Jenbergslåtar no 23
L:1/8
M:3/4
K:C
Gc cG G>c|ce ec c>e|eg gc' g>e|c2G4:|
|:G>F F>D D>F|F>E E>C C>E|ED DG, B,>D| DGG4:|
|:f2d2Bd/2B/2| G2G2c>e|eg gc' ge|c2G4:|
GF FD D>F|FE EC C>E|E>D DG, B,>D| DGG4|
|:f2 {g}(3f/2g/2f/2e/2f/2 a{ag}>f|g>e c>e a>^f| d2 Bd/2B/2 GA/2B/2| c2 GEC2|
f2 {g}(3f/2g/2f/2e/2f/2 a{ag}>f|g>e c>e a>^f| d2 Bd/2B/2 GA/2B/2| c2 c4:|

